X: 1132
T: An Awesome Mayhem
R: jig
M: 6/8
K: Bminor
B3 FBg|fed ecA|EAA fAe|cBA fec|
B3 FBg|fed ecA|EAA e3|cBA B2 A:|
B3 gBB|fBB gBf|eAA FAe|cBA ecA|
B3 gBB|FBB gBf|eAA fAA|cBA B3:|

